dist/img/blog/9.svg

<svg width="25" height="25" viewBox="0 0 25 25" fill="none" xmlns="http://www.w3.org/2000/svg">
<path d="M19.7137 19.9638C19.1825 19.9013 18.7137 19.6513 18.37 19.245L18.2137 19.0888C18.12 18.995 17.995 18.8388 17.8075 18.6825C17.62 18.495 17.4012 18.3075 17.1512 18.0888C16.9012 17.87 16.5887 17.62 16.245 17.3388C15.9012 17.0888 15.5575 16.8075 15.1512 16.5263C14.745 16.245 14.3387 15.9638 13.9012 15.6825C13.4637 15.4013 12.995 15.12 12.5262 14.8388C12.0575 14.5575 11.5575 14.3075 11.0575 14.0575C10.9637 13.995 10.8387 13.9638 10.745 13.9013C11.0262 13.2763 11.37 12.6825 11.7762 12.0888L12.0575 12.2763C12.5262 12.5888 12.995 12.87 13.495 13.1513C13.9637 13.4325 14.4637 13.6825 14.9325 13.9013C15.4012 14.12 15.87 14.3388 16.3075 14.5263C16.745 14.7138 17.1825 14.9013 17.5887 15.0263C17.995 15.1825 18.37 15.3075 18.6825 15.4013C19.0262 15.495 19.3075 15.5888 19.5575 15.6513C19.8075 15.7138 19.995 15.7763 20.12 15.8075C20.245 15.8388 20.3387 15.8388 20.3387 15.8388C21.495 16.0263 22.245 17.12 22.0262 18.2763C21.745 19.37 20.745 20.0888 19.7137 19.9638Z" fill="#202125"/>
<path d="M9.74521 17.4638C9.37021 18.12 8.55771 18.3388 7.90146 17.9638L3.68289 15.5888C3.02664 15.245 2.80789 14.4013 3.18289 13.745C3.37039 13.4325 3.77664 13.3075 4.08914 13.495L4.18289 13.5575C4.21414 13.8075 4.37039 13.995 4.55789 14.0888L8.74539 16.4638C8.93289 16.5888 9.18289 16.5888 9.40164 16.495L9.49539 16.5575C9.80789 16.745 9.90164 17.1513 9.74539 17.4638H9.74521Z" fill="#202125"/>
<path d="M14.2767 9.40164C14.0892 9.71414 13.6829 9.83914 13.3704 9.65164L13.2767 9.58914C13.2454 9.33914 13.0892 9.15164 12.9017 9.05789L8.7142 6.68289C8.52669 6.55789 8.27669 6.55789 8.05794 6.65164L7.96419 6.58914C7.65169 6.40164 7.52669 5.99539 7.71419 5.68289C8.08919 5.02664 8.90169 4.80789 9.55794 5.18289L13.7765 7.55789C14.4015 7.93289 14.6515 8.77664 14.2765 9.40164H14.2767Z" fill="#202125"/>
<path d="M9.46372 15.6516C9.40122 15.8391 9.27622 15.9329 9.18247 15.9641C9.11997 15.9954 9.05747 15.9954 8.99497 15.9641L4.83854 13.5891C4.77604 13.5579 4.74479 13.4954 4.74479 13.4329C4.71354 13.3391 4.74479 13.1829 4.86979 13.0266C4.96354 12.9329 5.05729 12.8079 5.15104 12.7141C5.18229 12.6829 5.21354 12.6204 5.24479 12.5891C5.36979 12.4329 5.52604 12.2766 5.65104 12.0891C5.71354 12.0266 5.74479 11.9641 5.80729 11.9016C5.90104 11.7766 5.99479 11.6516 6.08854 11.5266C6.15104 11.4641 6.18229 11.3704 6.24479 11.3079C6.30729 11.2141 6.36979 11.1204 6.43229 10.9954C6.49479 10.9016 6.55729 10.8079 6.58854 10.7141C6.65104 10.6204 6.68229 10.5266 6.74479 10.4329C6.80729 10.3391 6.83854 10.2454 6.90104 10.1516C6.96354 10.0579 6.99479 9.96414 7.05729 9.87039C7.08854 9.77664 7.15104 9.71414 7.18229 9.62039C7.18229 9.58914 7.21354 9.58914 7.21354 9.55789C7.24479 9.46414 7.30729 9.40164 7.33854 9.30789C7.36979 9.24539 7.40104 9.18289 7.40104 9.15164C7.43229 9.05789 7.49479 8.96414 7.52604 8.87039C7.55729 8.80789 7.58854 8.71414 7.61979 8.65164C7.68229 8.46414 7.77604 8.24539 7.83854 8.05789C7.86979 7.99539 7.86979 7.96414 7.90104 7.90164C7.93229 7.77664 7.99479 7.62039 8.02604 7.49539C8.08854 7.30789 8.21354 7.21414 8.30729 7.18289C8.33854 7.15164 8.43229 7.15164 8.49479 7.18289L12.6823 9.55789C12.7448 9.58914 12.776 9.65164 12.776 9.71414C12.8073 9.80789 12.776 9.96414 12.651 10.1204C12.526 10.2766 12.3698 10.4329 12.2448 10.5891C12.1823 10.6829 12.1198 10.7454 12.026 10.8391C12.026 10.8704 11.9948 10.8704 11.9948 10.9016C11.9635 10.9641 11.901 10.9954 11.8698 11.0579C11.8073 11.1204 11.7448 11.2141 11.7135 11.2766C11.6823 11.3079 11.651 11.3391 11.651 11.3704C11.5885 11.4329 11.5573 11.4954 11.4948 11.5579C11.4323 11.6204 11.401 11.6829 11.3385 11.7766C11.276 11.8391 11.2448 11.9329 11.1823 11.9954V12.0266C11.151 12.0891 11.0885 12.1829 11.0573 12.2454C11.026 12.3079 10.9635 12.4016 10.9323 12.4641C10.8385 12.6204 10.7448 12.8079 10.651 12.9641C10.6198 13.0266 10.5573 13.1204 10.526 13.1829C10.4948 13.2454 10.4635 13.3391 10.401 13.4016V13.4329C10.3698 13.4954 10.3385 13.5891 10.276 13.6829C10.2448 13.7454 10.2135 13.8391 10.1823 13.9016C10.151 13.9641 10.1198 14.0579 10.0885 14.1204C10.0573 14.1516 10.0573 14.1829 10.026 14.2454C9.99479 14.3391 9.96354 14.4016 9.93229 14.4954C9.90104 14.5579 9.86979 14.6204 9.86979 14.6829C9.86979 14.7141 9.83854 14.7141 9.83854 14.7454C9.80729 14.8391 9.77604 14.9641 9.71354 15.0579C9.58854 15.2454 9.52604 15.4329 9.46354 15.6516H9.46372Z" fill="#202125"/>
</svg>

<svg width="25" height="25" viewBox="0 0 25 25" fill="none" xmlns="http://www.w3.org/2000/svg"><path d="M19.714 19.964a2.05 2.05 0 01-1.344-.719l-.156-.156c-.094-.094-.219-.25-.406-.406-.188-.188-.407-.375-.657-.594-.25-.219-.562-.469-.906-.75-.344-.25-.688-.531-1.094-.813a43.29 43.29 0 00-1.25-.844 52.988 52.988 0 00-1.375-.843 21.57 21.57 0 00-1.469-.782c-.093-.062-.218-.093-.312-.156a11.7 11.7 0 011.031-1.812l.281.187a22 22 0 001.438.875c.469.281.969.531 1.438.75.468.219.937.438 1.375.625.437.188.875.375 1.28.5.407.156.782.281 1.095.375.343.094.625.188.875.25.25.063.437.125.562.156a.978.978 0 00.219.032c1.156.187 1.906 1.281 1.687 2.437-.281 1.094-1.281 1.813-2.312 1.688zm-9.969-2.5a1.339 1.339 0 01-1.844.5l-4.218-2.375c-.656-.344-.875-1.188-.5-1.844.187-.313.594-.438.906-.25l.094.063c.031.25.187.437.375.53l4.187 2.376c.188.125.438.125.657.031l.093.063a.698.698 0 01.25.906zm4.532-8.062c-.188.312-.594.437-.907.25l-.093-.063a.687.687 0 00-.375-.531L8.714 6.683c-.187-.125-.437-.125-.656-.031l-.094-.063c-.312-.187-.437-.594-.25-.906a1.338 1.338 0 011.844-.5l4.219 2.375c.625.375.875 1.219.5 1.844zm-4.813 6.25a.473.473 0 01-.282.312.199.199 0 01-.187 0L4.839 13.59a.172.172 0 01-.094-.156c-.031-.094 0-.25.125-.406.094-.094.187-.22.281-.313.031-.031.063-.094.094-.125.125-.156.281-.312.406-.5.063-.062.094-.125.156-.187l.282-.375c.062-.063.093-.157.156-.22.062-.093.125-.187.187-.312.063-.093.125-.187.157-.28.062-.095.093-.188.156-.282.062-.094.094-.188.156-.281.063-.094.094-.188.156-.282.032-.093.094-.156.125-.25 0-.03.032-.03.032-.062.03-.094.093-.156.125-.25.03-.063.062-.125.062-.156.031-.094.094-.188.125-.282.031-.062.063-.156.094-.218.062-.188.156-.407.219-.594.03-.063.03-.094.062-.156.031-.125.094-.282.125-.407a.473.473 0 01.281-.312c.032-.031.125-.031.188 0l4.187 2.375a.172.172 0 01.094.156c.031.094 0 .25-.125.406-.125.157-.281.313-.406.47a1.559 1.559 0 01-.219.25c0 .03-.031.03-.031.062-.031.062-.094.093-.125.156a.951.951 0 00-.156.219c-.032.03-.063.062-.063.093-.063.063-.094.125-.156.188-.063.062-.094.125-.156.219-.063.062-.094.156-.157.218v.032c-.031.062-.094.156-.125.218-.031.063-.094.157-.125.22-.094.155-.187.343-.281.5-.031.062-.094.155-.125.218-.031.062-.063.156-.125.219v.03c-.031.063-.063.157-.125.25-.031.063-.063.157-.094.22-.031.062-.062.156-.094.218-.03.032-.03.063-.062.125-.031.094-.062.157-.094.25-.031.063-.062.125-.062.188 0 .031-.031.031-.031.062-.032.094-.063.22-.125.313a1.997 1.997 0 00-.25.594z" fill="#202125"/></svg>
